pro/src/icons/stroke-connect.svg

<svg width="48" height="48" viewBox="0 0 48 48" fill="none" xmlns="http://www.w3.org/2000/svg">
<g id="icon">
    <path fill="currentColor" d="M40.5886 18.5269C43.3077 15.8078 43.2253 10.8117 39.74 7.32636C36.2547 3.84106 31.2586 3.75873 28.5395 6.47783C28.1177 6.8996 27.4339 6.8996 27.0121 6.47783C26.5903 6.05607 26.5903 5.37225 27.0121 4.95048C30.7418 1.22078 37.1159 1.64756 41.2674 5.79901C45.4188 9.95047 45.8456 16.3246 42.1159 20.0543L35.3277 26.8425C34.9059 27.2643 34.2221 27.2643 33.8003 26.8425C33.3786 26.4207 33.3786 25.7369 33.8003 25.3152L40.5886 18.5269Z"     />
    <path fill="currentColor" d="M21.9209 10.0417C22.3427 9.61989 23.0265 9.61989 23.4483 10.0417C23.8701 10.4634 23.8701 11.1472 23.4483 11.569L20.0542 14.9631C18.7499 16.2674 18.242 18.3355 18.4664 20.55C18.6905 22.7616 19.6271 24.8881 20.9027 26.1637C21.3245 26.5855 21.3245 27.2693 20.9027 27.691C20.4809 28.1128 19.7971 28.1128 19.3754 27.691C17.6811 25.9968 16.5812 23.3715 16.3174 20.7677C16.0539 18.1669 16.6067 15.3559 18.5268 13.4358L21.9209 10.0417Z"   />
    <path fill="currentColor" d="M6.47774 28.5396C3.75864 31.2587 3.84097 36.2549 7.32627 39.7402C10.8116 43.2255 15.8077 43.3078 18.5268 40.5887L27.0121 32.1034C28.3164 30.7991 28.8243 28.7311 28.5999 26.5165C28.3758 24.3049 27.4392 22.1784 26.1636 20.9028C25.7418 20.4811 25.7418 19.7973 26.1636 19.3755C26.5854 18.9537 27.2692 18.9537 27.6909 19.3755C29.3852 21.0698 30.4851 23.695 30.7489 26.2988C31.0124 28.8997 30.4596 31.7107 28.5395 33.6308L20.0542 42.116C16.3245 45.8457 9.95037 45.419 5.79892 41.2675C1.64747 37.1161 1.22068 30.7419 4.95039 27.0122L11.7386 20.224C12.1604 19.8022 12.8442 19.8022 13.266 20.224C13.6877 20.6458 13.6877 21.3296 13.266 21.7514L6.47774 28.5396Z" />
</g>
</svg>

<svg xmlns="http://www.w3.org/2000/svg" width="48" height="48" fill="none"><g id="icon" fill="currentColor"><path d="M40.589 18.527c2.719-2.72 2.636-7.715-.849-11.2-3.485-3.486-8.481-3.568-11.2-.85a1.08 1.08 0 0 1-1.528-1.527c3.73-3.73 10.104-3.302 14.255.849s4.579 10.526.849 14.255l-6.788 6.789a1.08 1.08 0 1 1-1.528-1.528zM21.92 10.042a1.08 1.08 0 1 1 1.528 1.527l-3.394 3.394c-1.304 1.304-1.812 3.373-1.588 5.587.224 2.212 1.161 4.338 2.437 5.614a1.08 1.08 0 1 1-1.528 1.527c-1.694-1.694-2.794-4.32-3.058-6.923-.263-2.601.29-5.412 2.21-7.332z"/><path d="M6.478 28.54c-2.72 2.719-2.637 7.715.848 11.2 3.486 3.485 8.482 3.568 11.2.849l8.486-8.486c1.304-1.304 1.812-3.372 1.588-5.587-.224-2.211-1.16-4.338-2.436-5.613a1.08 1.08 0 1 1 1.527-1.527c1.694 1.694 2.794 4.319 3.058 6.923.263 2.6-.29 5.412-2.21 7.332l-8.485 8.485c-3.73 3.73-10.104 3.303-14.255-.849-4.152-4.15-4.578-10.525-.849-14.255l6.789-6.788a1.08 1.08 0 1 1 1.527 1.527z"/></g></svg>
